src/images_karasa_jaga_svg/cmd/32/flowchartshapes.flowchart-sequential-access.svg

<svg height="32" viewBox="0 0 32 32" width="32" xmlns="http://www.w3.org/2000/svg" xmlns:xlink="http://www.w3.org/1999/xlink"><linearGradient id="a"><stop offset="0" stop-color="#7c9fcf"/><stop offset=".5" stop-color="#7c9ece"/><stop offset="1" stop-color="#7b9dcf"/></linearGradient><linearGradient id="b" gradientUnits="userSpaceOnUse" x1="60" x2="60" y1="128" y2="-1.321351"><stop offset="0" stop-color="#fff"/><stop offset=".4639605" stop-color="#fff"/><stop offset=".70089245" stop-color="#f1f1f1"/><stop offset=".927921" stop-color="#eaeaea"/><stop offset="1" stop-color="#dfdfdf"/></linearGradient><linearGradient id="c" gradientUnits="userSpaceOnUse" x1="60" x2="60" xlink:href="#a" y1="128" y2="-1.321351"/><linearGradient id="d" gradientUnits="userSpaceOnUse" x1="8" x2="120.03125" xlink:href="#a" y1="64.015625" y2="64.015625"/><g transform="scale(.25)"><path d="m64 8c-3.089896.0000401-6.173442.2844268-9.216797.8046875a55.974892 55.974892 0 0 0 -.65625.1152344c-1.480139.2712024-2.948179.599696-4.402344.9882812a55.974892 55.974892 0 0 0 -1.427734.3984379c-1.243517.367195-2.473534.775729-3.689453 1.226562a55.974892 55.974892 0 0 0 -1.701172.660156c-1.161457.473143-2.305687.987001-3.433594 1.535157a55.974892 55.974892 0 0 0 -1.498047.75c-1.250927.653854-2.473303 1.360648-3.671875 2.105468a55.974892 55.974892 0 0 0 -.898437.566407c-1.423438.922076-2.801315 1.909486-4.134766 2.957031a55.974892 55.974892 0 0 0 -.101562.08008c-1.665279 1.314542-3.264202 2.71342-4.765625 4.214844-2.363247 2.363246-4.487972 4.953652-6.38086 7.705078a55.974892 55.974892 0 0 0 -.345703.492187c-.838513 1.247251-1.618624 2.533385-2.355469 3.84375a55.974892 55.974892 0 0 0 -.664062 1.177735 55.974892 55.974892 0 0 0 0 .002c-.613311 1.153922-1.17201 2.335977-1.705078 3.529297a55.974892 55.974892 0 0 0 -.861328 2.019531c-.438811 1.092674-.840219 2.198905-1.210938 3.316406a55.974892 55.974892 0 0 0 -.52539 1.644531c-.4234846 1.41852-.7883122 2.853914-1.0996098 4.300782a55.974892 55.974892 0 0 0 -.1367187.601513c-.7346255 3.605964-1.1171397 7.282283-1.1171875 10.964844.0000401 3.089896.2844268 6.173442.8046875 9.216797a55.974892 55.974892 0 0 0 .1152344.65625c.2712024 1.480139.599696 2.948179.9882812 4.402344a55.974892 55.974892 0 0 0 .3984379 1.427734c.367195 1.243517.775729 2.473534 1.226562 3.689453a55.974892 55.974892 0 0 0 .660156 1.701172c.473143 1.161457.987001 2.305687 1.535157 3.433594a55.974892 55.974892 0 0 0 .75 1.498047c.653854 1.250927 1.360648 2.473303 2.105468 3.671875a55.974892 55.974892 0 0 0 .566407.898437c.922076 1.423438 1.909486 2.801314 2.957031 4.134766a55.974892 55.974892 0 0 0 .08008.101562c1.314542 1.665279 2.71342 3.264199 4.214844 4.765629 2.350863 2.35086 4.926756 4.46476 7.662109 6.34765a55.974892 55.974892 0 0 0 .544922.38477c1.183488.79402 2.404048 1.53203 3.644531 2.23437a55.974892 55.974892 0 0 0 2.125 1.14453c.772821.39529 1.553653.77305 2.34375 1.13282a55.974892 55.974892 0 0 0 3.183594 1.33593c.606352.23317 1.216163.45553 1.830078.66797a55.974892 55.974892 0 0 0 3.296875 1.03125c.804696.2251 1.613987.43167 2.427735.6211a55.974892 55.974892 0 0 0 2.576171.53711c1.305906.2405 2.617774.44695 3.9375.59375a55.974892 55.974892 0 0 0 1.146485.10156c1.380968.12454 2.765071.21353 4.152344.23242a4.0316531 4.0316531 0 0 0 .72656.06836h52a4.0316531 4.0316531 0 0 0 4.03125-4.03125v-12a4.0316531 4.0316531 0 0 0 -4.03125-4.03125h-9.11719a55.974892 55.974892 0 0 0 12.12696-25.835938c.27391-1.419485.48585-2.849984.64648-4.287109a55.974892 55.974892 0 0 0 .0469-.394531c.18859-1.808058.29492-3.625735.29685-5.447266a4.0316531 4.0316531 0 0 0 0-.003906c-.00004-3.089896-.28443-6.173442-.80469-9.216797a55.974892 55.974892 0 0 0 -.11523-.65625c-.2712-1.480139-.5997-2.948179-.98828-4.402344a55.974892 55.974892 0 0 0 -.39844-1.427734c-.3672-1.243517-.77573-2.473534-1.22656-3.689453a55.974892 55.974892 0 0 0 -.66016-1.701172c-.47314-1.161457-.987-2.305687-1.53516-3.433594a55.974892 55.974892 0 0 0 -.75-1.498047c-.65385-1.250927-1.36064-2.473303-2.10546-3.671875a55.974892 55.974892 0 0 0 -.56641-.898437c-.92208-1.423438-1.90949-2.801315-2.95703-4.134766a55.974892 55.974892 0 0 0 -.0801-.101562c-1.31454-1.665279-2.71342-3.264202-4.21484-4.765625-2.36325-2.363247-4.953656-4.487972-7.705082-6.38086a55.974892 55.974892 0 0 0 -.492187-.345703c-1.247252-.838513-2.533385-1.618624-3.84375-2.355469a55.974892 55.974892 0 0 0 -1.177735-.664062 55.974892 55.974892 0 0 0 -.002 0c-1.153856-.613311-2.335909-1.17201-3.52923-1.705078a55.974892 55.974892 0 0 0 -2.019531-.861328c-1.092674-.438811-2.198905-.840219-3.316406-1.210938a55.974892 55.974892 0 0 0 -1.644531-.52539c-1.41852-.4234846-2.853914-.7883122-4.300782-1.0996098a55.974892 55.974892 0 0 0 -.601562-.1367187c-3.605964-.7346255-7.282283-1.1171397-10.964844-1.1171875z" fill="url(#d)"/><path d="m64 12.03125a51.969425 51.969425 0 0 0 -51.96875 51.96875 51.969425 51.969425 0 0 0 51.96875 51.96875v.03125h52v-12h-18.888672a51.969425 51.969425 0 0 0 18.857422-40 51.969425 51.969425 0 0 0 -51.96875-51.96875z" fill="url(#b)"/><circle cx="64" cy="64" fill="url(#c)" r="0"/></g></svg>

<?xml version="1.0" encoding="UTF-8" standalone="no"?>
<!-- Created with Inkscape (http://www.inkscape.org/) -->

<svg
   xmlns:dc="http://purl.org/dc/elements/1.1/"
   xmlns:cc="http://creativecommons.org/ns#"
   xmlns:rdf="http://www.w3.org/1999/02/22-rdf-syntax-ns#"
   xmlns:svg="http://www.w3.org/2000/svg"
   xmlns="http://www.w3.org/2000/svg"
   xmlns:xlink="http://www.w3.org/1999/xlink"
   xmlns:sodipodi="http://sodipodi.sourceforge.net/DTD/sodipodi-0.dtd"
   xmlns:inkscape="http://www.inkscape.org/namespaces/inkscape"
   version="1.1"
   id="svg2"
   width="128"
   height="128"
   viewBox="0 0 128 128"
   sodipodi:docname="flowchartshapes.flowchart-sequential-access.svg"
   inkscape:export-filename="/home/rizmut/Dokumen/Rizmut/Github/libreoffice-style-karasa-jaga/build/images_karasa_jaga/cmd/32/flowchartshapes.flowchart-sequential-access.png"
   inkscape:export-xdpi="24"
   inkscape:export-ydpi="24"
   inkscape:version="0.92.3 (unknown)">
  <metadata
     id="metadata8">
    <rdf:RDF>
      <cc:Work
         rdf:about="">
        <dc:format>image/svg+xml</dc:format>
        <dc:type
           rdf:resource="http://purl.org/dc/dcmitype/StillImage" />
        <dc:title />
      </cc:Work>
    </rdf:RDF>
  </metadata>
  <defs
     id="defs6">
    <linearGradient
       inkscape:collect="always"
       id="linearGradient825">
      <stop
         style="stop-color:#f9f9fa;stop-opacity:1;"
         offset="0"
         id="stop821" />
      <stop
         style="stop-color:#f9f9fa;stop-opacity:0;"
         offset="1"
         id="stop823" />
    </linearGradient>
    <linearGradient
       inkscape:collect="always"
       xlink:href="#linearGradient825"
       id="linearGradient1536"
       x1="70.052383"
       y1="-18.468208"
       x2="62.030193"
       y2="84.412926"
       gradientUnits="userSpaceOnUse" />
    <linearGradient
       id="linearGradient7422">
      <stop
         style="stop-color:#7c9fcf;stop-opacity:1"
         offset="0"
         id="stop7424" />
      <stop
         id="stop5348"
         offset="0.5"
         style="stop-color:#7c9ece;stop-opacity:1" />
      <stop
         id="stop7426"
         offset="1"
         style="stop-color:#7b9dcf;stop-opacity:1" />
    </linearGradient>
    <linearGradient
       id="linearGradient3369">
      <stop
         id="stop3372"
         offset="0"
         style="stop-color:#ffffff;stop-opacity:1;" />
      <stop
         style="stop-color:#ffffff;stop-opacity:1;"
         offset="0.4639605"
         id="stop3374" />
      <stop
         style="stop-color:#f1f1f1;stop-opacity:1;"
         offset="0.70089245"
         id="stop3376" />
      <stop
         id="stop3378"
         offset="0.927921"
         style="stop-color:#eaeaea;stop-opacity:1;" />
      <stop
         id="stop3384"
         offset="1"
         style="stop-color:#dfdfdf;stop-opacity:1;" />
    </linearGradient>
    <linearGradient
       inkscape:collect="always"
       xlink:href="#linearGradient3369"
       id="linearGradient1454"
       x1="60"
       y1="128"
       x2="60"
       y2="-1.3213514"
       gradientUnits="userSpaceOnUse" />
    <linearGradient
       inkscape:collect="always"
       xlink:href="#linearGradient7422"
       id="linearGradient1458"
       gradientUnits="userSpaceOnUse"
       x1="60"
       y1="128"
       x2="60"
       y2="-1.3213514" />
    <linearGradient
       inkscape:collect="always"
       xlink:href="#linearGradient7422"
       id="linearGradient1493"
       x1="8"
       y1="64.015625"
       x2="120.03125"
       y2="64.015625"
       gradientUnits="userSpaceOnUse" />
  </defs>
  <sodipodi:namedview
     pagecolor="#ffffff"
     bordercolor="#666666"
     borderopacity="1"
     objecttolerance="10"
     gridtolerance="10"
     guidetolerance="10"
     inkscape:pageopacity="0"
     inkscape:pageshadow="2"
     inkscape:window-width="1366"
     inkscape:window-height="657"
     id="namedview4"
     showgrid="true"
     inkscape:snap-page="true"
     inkscape:snap-global="true"
     inkscape:zoom="1.7320077"
     inkscape:cx="-12.305582"
     inkscape:cy="90.985252"
     inkscape:window-x="0"
     inkscape:window-y="30"
     inkscape:window-maximized="1"
     inkscape:current-layer="svg2"
     inkscape:lockguides="false">
    <inkscape:grid
       type="xygrid"
       id="grid818"
       spacingx="4"
       spacingy="4"
       empspacing="1" />
  </sodipodi:namedview>
  <path
     style="opacity:1;fill:url(#linearGradient1493);fill-opacity:1.0;stroke:none;stroke-width:4.75870705;stroke-linecap:round;stroke-linejoin:bevel;stroke-miterlimit:4;stroke-dasharray:none;stroke-dashoffset:0;stroke-opacity:0.73039216"
     d="M 64 8 C 60.910104 8.0000401 57.826558 8.2844268 54.783203 8.8046875 A 55.974892 55.974892 0 0 0 54.126953 8.9199219 C 52.646814 9.1911243 51.178774 9.5196179 49.724609 9.9082031 A 55.974892 55.974892 0 0 0 48.296875 10.306641 C 47.053358 10.673836 45.823341 11.08237 44.607422 11.533203 A 55.974892 55.974892 0 0 0 42.90625 12.193359 C 41.744793 12.666502 40.600563 13.18036 39.472656 13.728516 A 55.974892 55.974892 0 0 0 37.974609 14.478516 C 36.723682 15.13237 35.501306 15.839164 34.302734 16.583984 A 55.974892 55.974892 0 0 0 33.404297 17.150391 C 31.980859 18.072467 30.602982 19.059877 29.269531 20.107422 A 55.974892 55.974892 0 0 0 29.167969 20.1875 C 27.50269 21.502042 25.903767 22.90092 24.402344 24.402344 C 22.039097 26.76559 19.914372 29.355996 18.021484 32.107422 A 55.974892 55.974892 0 0 0 17.675781 32.599609 C 16.837268 33.84686 16.057157 35.132994 15.320312 36.443359 A 55.974892 55.974892 0 0 0 14.65625 37.621094 A 55.974892 55.974892 0 0 0 14.65625 37.623047 C 14.042939 38.776969 13.48424 39.959024 12.951172 41.152344 A 55.974892 55.974892 0 0 0 12.089844 43.171875 C 11.651033 44.264549 11.249625 45.37078 10.878906 46.488281 A 55.974892 55.974892 0 0 0 10.353516 48.132812 C 9.9300314 49.551332 9.5652038 50.986726 9.2539062 52.433594 A 55.974892 55.974892 0 0 0 9.1171875 53.035156 C 8.382562 56.64112 8.0000478 60.317439 8 64 C 8.0000401 67.089896 8.2844268 70.173442 8.8046875 73.216797 A 55.974892 55.974892 0 0 0 8.9199219 73.873047 C 9.1911243 75.353186 9.5196179 76.821226 9.9082031 78.275391 A 55.974892 55.974892 0 0 0 10.306641 79.703125 C 10.673836 80.946642 11.08237 82.176659 11.533203 83.392578 A 55.974892 55.974892 0 0 0 12.193359 85.09375 C 12.666502 86.255207 13.18036 87.399437 13.728516 88.527344 A 55.974892 55.974892 0 0 0 14.478516 90.025391 C 15.13237 91.276318 15.839164 92.498694 16.583984 93.697266 A 55.974892 55.974892 0 0 0 17.150391 94.595703 C 18.072467 96.019141 19.059877 97.397017 20.107422 98.730469 A 55.974892 55.974892 0 0 0 20.1875 98.832031 C 21.502042 100.49731 22.90092 102.09623 24.402344 103.59766 C 26.753207 105.94852 29.3291 108.06242 32.064453 109.94531 A 55.974892 55.974892 0 0 0 32.609375 110.33008 C 33.792863 111.1241 35.013423 111.86211 36.253906 112.56445 A 55.974892 55.974892 0 0 0 38.378906 113.70898 C 39.151727 114.10427 39.932559 114.48203 40.722656 114.8418 A 55.974892 55.974892 0 0 0 43.90625 116.17773 C 44.512602 116.4109 45.122413 116.63326 45.736328 116.8457 A 55.974892 55.974892 0 0 0 49.033203 117.87695 C 49.837899 118.10205 50.64719 118.30862 51.460938 118.49805 A 55.974892 55.974892 0 0 0 54.037109 119.03516 C 55.343015 119.27566 56.654883 119.48211 57.974609 119.62891 A 55.974892 55.974892 0 0 0 59.121094 119.73047 C 60.502062 119.85501 61.886165 119.944 63.273438 119.96289 A 4.0316531 4.0316531 0 0 0 64 120.03125 L 116 120.03125 A 4.0316531 4.0316531 0 0 0 120.03125 116 L 120.03125 104 A 4.0316531 4.0316531 0 0 0 116 99.96875 L 106.88281 99.96875 A 55.974892 55.974892 0 0 0 119.00977 74.132812 C 119.28368 72.713327 119.49562 71.282828 119.65625 69.845703 A 55.974892 55.974892 0 0 0 119.70312 69.451172 C 119.89174 67.643114 119.99807 65.825437 120 64.003906 A 4.0316531 4.0316531 0 0 0 120 64 C 119.99996 60.910104 119.71557 57.826558 119.19531 54.783203 A 55.974892 55.974892 0 0 0 119.08008 54.126953 C 118.80888 52.646814 118.48038 51.178774 118.0918 49.724609 A 55.974892 55.974892 0 0 0 117.69336 48.296875 C 117.32616 47.053358 116.91763 45.823341 116.4668 44.607422 A 55.974892 55.974892 0 0 0 115.80664 42.90625 C 115.3335 41.744793 114.81964 40.600563 114.27148 39.472656 A 55.974892 55.974892 0 0 0 113.52148 37.974609 C 112.86763 36.723682 112.16084 35.501306 111.41602 34.302734 A 55.974892 55.974892 0 0 0 110.84961 33.404297 C 109.92753 31.980859 108.94012 30.602982 107.89258 29.269531 A 55.974892 55.974892 0 0 0 107.8125 29.167969 C 106.49796 27.50269 105.09908 25.903767 103.59766 24.402344 C 101.23441 22.039097 98.644004 19.914372 95.892578 18.021484 A 55.974892 55.974892 0 0 0 95.400391 17.675781 C 94.153139 16.837268 92.867006 16.057157 91.556641 15.320312 A 55.974892 55.974892 0 0 0 90.378906 14.65625 A 55.974892 55.974892 0 0 0 90.376953 14.65625 C 89.22303 14.042939 88.040977 13.48424 86.847656 12.951172 A 55.974892 55.974892 0 0 0 84.828125 12.089844 C 83.735451 11.651033 82.62922 11.249625 81.511719 10.878906 A 55.974892 55.974892 0 0 0 79.867188 10.353516 C 78.448668 9.9300314 77.013274 9.5652038 75.566406 9.2539062 A 55.974892 55.974892 0 0 0 74.964844 9.1171875 C 71.35888 8.382562 67.682561 8.0000478 64 8 z "
     id="path1482" />
  <path
     style="opacity:1;fill:url(#linearGradient1454);fill-opacity:1;stroke:none;stroke-width:4.75870705;stroke-linecap:round;stroke-linejoin:bevel;stroke-miterlimit:4;stroke-dasharray:none;stroke-dashoffset:0;stroke-opacity:0.73039216"
     d="M 64 12.03125 A 51.969425 51.969425 0 0 0 12.03125 64 A 51.969425 51.969425 0 0 0 64 115.96875 L 64 116 L 116 116 L 116 104 L 97.111328 104 A 51.969425 51.969425 0 0 0 115.96875 64 A 51.969425 51.969425 0 0 0 64 12.03125 z "
     id="path1515" />
  <path
     id="circle1528"
     style="opacity:1;fill:url(#linearGradient1536);fill-opacity:1;stroke:none;stroke-width:3.85701394;stroke-linecap:round;stroke-linejoin:bevel;stroke-miterlimit:4;stroke-dasharray:none;stroke-dashoffset:0;stroke-opacity:0.73039216"
     r="42.122112"
     cy="64"
     cx="64" />
  <ellipse
     r="51.969425"
     cy="64"
     cx="64"
     id="ellipse1456"
     style="opacity:1;fill:url(#linearGradient1458);fill-opacity:1;stroke:none;stroke-width:4.75870705;stroke-linecap:round;stroke-linejoin:bevel;stroke-miterlimit:4;stroke-dasharray:none;stroke-dashoffset:0;stroke-opacity:0.73039216" />
</svg>
